X: 18754
T: Ievan Polkka
R: polka
M: 2/4
K: Aminor
[e^d][e^d] dc|BG G>A|BB cB|A2 A2||
|:EA A>B|cA Ac|BG GB|cA A2|
EA A>B|cA Ac|d2 cB|cB A2:|
|:[e^d]2 [e^d]c|BG GB|d2 cB|cd ef|
[e^d][e^d] dc|BG GB/c/|d2 cB|cB A2:|

